dist/img/benefits-card_3.svg

<svg width="34" height="34" viewBox="0 0 34 34" fill="none" xmlns="http://www.w3.org/2000/svg">
<path d="M12.35 15.0253C12.5482 14.91 12.7125 14.7452 12.8265 14.5474C12.9406 14.3496 13.0004 14.1256 13 13.8978V2.30073C13.0018 2.09316 12.953 1.88823 12.8577 1.70337C12.7624 1.51852 12.6235 1.35921 12.4528 1.23901C12.2821 1.1188 12.0846 1.04126 11.8771 1.01299C11.6696 0.984712 11.4583 1.00653 11.2612 1.0766C7.96998 2.2387 5.12151 4.38059 3.10566 7.2091C1.08981 10.0376 0.00509886 13.4145 0 16.8776C0.00176034 17.9037 0.0941967 18.9278 0.276249 19.9379C0.315308 20.1397 0.4019 20.3295 0.528972 20.4918C0.656044 20.6542 0.820003 20.7845 1.0075 20.8721C1.18052 20.953 1.36875 20.9969 1.55999 21.001C1.78861 20.9996 2.01281 20.9385 2.20999 20.8238L12.35 15.0253ZM10.4 4.24968V13.1569L2.61624 17.6185C2.59999 17.3608 2.59999 17.1192 2.59999 16.8776C2.60498 14.2657 3.33547 11.7057 4.71136 9.47819C6.08724 7.25068 8.05538 5.44172 10.4 4.24968Z" fill="#292930"/>
<path d="M31.824 8.55643C31.8076 8.53821 31.7966 8.51556 31.7922 8.49112L31.7287 8.40949C30.2751 5.85101 28.195 3.72852 25.6954 2.25328C23.1959 0.778045 20.364 0.00151063 17.4818 0.000976562C17.1448 0.000976562 16.8216 0.138591 16.5833 0.383547C16.3451 0.628502 16.2112 0.960734 16.2112 1.30715V16.2302L3.64786 23.6918C3.50143 23.7749 3.37266 23.8874 3.26912 24.0225C3.16559 24.1576 3.08938 24.3126 3.04498 24.4784C3.00059 24.6442 2.9889 24.8175 3.01061 24.988C3.03231 25.1586 3.08698 25.3229 3.17138 25.4714V25.5041L3.21903 25.5857C5.05119 28.8098 7.86604 31.3232 11.2279 32.7369C14.5898 34.1506 18.3112 34.3857 21.8162 33.406C25.3212 32.4262 28.4144 30.2861 30.6168 27.317C32.8193 24.3478 34.0084 20.7152 34 16.9813C34.0038 14.0257 33.2535 11.1208 31.824 8.55643Z" fill="#292930"/>
</svg>

<svg width="34" height="34" fill="none" xmlns="http://www.w3.org/2000/svg"><path d="M12.35 15.025a1.31 1.31 0 00.65-1.127V2.3a1.28 1.28 0 00-.547-1.062 1.306 1.306 0 00-1.192-.162 16.933 16.933 0 00-8.155 6.132A16.698 16.698 0 000 16.878c.002 1.026.094 2.05.276 3.06a1.299 1.299 0 00.732.934c.173.081.36.125.552.129a1.31 1.31 0 00.65-.177l10.14-5.799zM10.4 4.25v8.907l-7.784 4.462c-.016-.258-.016-.5-.016-.741a14.13 14.13 0 012.111-7.4A14.3 14.3 0 0110.4 4.25z" fill="#292930"/><path d="M31.824 8.556a.133.133 0 01-.032-.065l-.063-.082a16.735 16.735 0 00-6.034-6.156A16.157 16.157 0 0017.482.001c-.337 0-.66.138-.899.383a1.325 1.325 0 00-.372.923V16.23L3.648 23.692a1.263 1.263 0 00-.379.33 1.304 1.304 0 00-.258.966c.021.17.076.335.16.483v.033l.048.082c1.832 3.224 4.647 5.737 8.009 7.15a16.098 16.098 0 0010.588.67c3.505-.98 6.598-3.12 8.8-6.089A17.293 17.293 0 0034 16.981a17.267 17.267 0 00-2.176-8.425z" fill="#292930"/></svg>
